flaticon/pins-and-locations/placeholder-19.svg

<svg xmlns="http://www.w3.org/2000/svg" width="32" height="32" viewBox="0 0 24 24">
    <path d="M 14.601562 6.679688 C 14.441406 5.601562 13.519531 4.761719 12.398438 4.761719 C 11.679688 4.761719 11.039062 5.078125 10.640625 5.640625 C 9.921875 5.558594 9.28125 6 9.039062 6.679688 C 8.519531 7 8.199219 7.601562 8.199219 8.199219 C 8.199219 9.199219 9 10 9.960938 10 L 12.761719 10 C 12.800781 10 12.800781 10 12.800781 10 L 13.960938 10 C 14.839844 10 15.601562 9.238281 15.640625 8.238281 C 15.640625 7.558594 15.238281 6.921875 14.601562 6.679688 Z M 13.960938 9.199219 L 9.960938 9.199219 C 9.441406 9.199219 9 8.761719 9 8.199219 C 9 7.839844 9.238281 7.480469 9.558594 7.320312 L 9.71875 7.238281 L 9.761719 7.039062 C 9.839844 6.601562 10.28125 6.359375 10.679688 6.480469 L 11 6.601562 L 11.160156 6.320312 C 11.398438 5.878906 11.839844 5.601562 12.359375 5.601562 C 13.121094 5.601562 13.761719 6.238281 13.761719 7.039062 L 13.761719 7.359375 L 14.078125 7.441406 C 14.519531 7.519531 14.800781 7.878906 14.800781 8.320312 C 14.800781 8.800781 14.441406 9.199219 13.960938 9.199219 Z M 13.960938 9.199219"/>
    <path d="M 12 0 C 7.601562 0 4 3.601562 4 8 C 4 10.160156 4.640625 11.480469 5.558594 13.28125 C 5.679688 13.558594 5.839844 13.839844 6 14.160156 C 8.238281 18.761719 11.640625 23.761719 11.679688 23.839844 C 11.761719 23.921875 11.878906 24 12 24 C 12.121094 24 12.238281 23.921875 12.320312 23.800781 C 12.359375 23.761719 15.761719 18.761719 18 14.160156 C 18.160156 13.839844 18.28125 13.558594 18.441406 13.28125 C 19.359375 11.480469 20 10.160156 20 8 C 20 3.601562 16.398438 0 12 0 Z M 17.71875 12.878906 C 17.601562 13.199219 17.441406 13.480469 17.28125 13.800781 C 15.480469 17.480469 12.921875 21.480469 12 22.839844 C 11.078125 21.480469 8.519531 17.519531 6.71875 13.800781 C 6.558594 13.519531 6.441406 13.199219 6.28125 12.921875 C 5.398438 11.160156 4.800781 9.960938 4.800781 8 C 4.800781 4.039062 8.039062 0.800781 12 0.800781 C 15.960938 0.800781 19.199219 4.039062 19.199219 8 C 19.199219 9.960938 18.601562 11.160156 17.71875 12.878906 Z M 17.71875 12.878906"/>
</svg>

<svg xmlns="http://www.w3.org/2000/svg" width="32" height="32" viewBox="0 0 24 24">
    <path d="M14.602 6.68c-.16-1.078-1.082-1.918-2.204-1.918-.718 0-1.359.316-1.757.879C9.92 5.559 9.28 6 9.039 6.68c-.52.32-.84.922-.84 1.52C8.2 9.2 9 10 9.961 10h4c.879 0 1.64-.762 1.68-1.762 0-.68-.403-1.316-1.04-1.558zM13.96 9.2h-4C9.44 9.2 9 8.761 9 8.2c0-.36.238-.72.559-.88l.16-.082.043-.199a.719.719 0 0 1 .918-.559l.32.122.16-.282c.238-.441.68-.718 1.2-.718.761 0 1.402.636 1.402 1.437v.32l.316.082c.442.079.723.438.723.88 0 .48-.36.878-.84.878zm0 0"/>
    <path d="M12 0C7.602 0 4 3.602 4 8c0 2.16.64 3.48 1.559 5.281.12.278.28.559.441.88 2.238 4.6 5.64 9.6 5.68 9.679.082.082.199.16.32.16s.238-.078.32-.2c.04-.038 3.442-5.038 5.68-9.64.16-.32.281-.601.441-.879C19.36 11.481 20 10.161 20 8c0-4.398-3.602-8-8-8zm5.719 12.879c-.117.32-.278.601-.438.922-1.8 3.68-4.36 7.68-5.281 9.039-.922-1.36-3.48-5.32-5.281-9.04-.16-.28-.278-.6-.438-.878C5.398 11.16 4.801 9.96 4.801 8 4.8 4.04 8.039.8 12 .8c3.96 0 7.2 3.24 7.2 7.2 0 1.96-.598 3.16-1.481 4.879zm0 0"/>
</svg>
